X: 13003
T: Figaro
R: polka
M: 2/4
K: Cmajor
|:"C"c G G e|e c c B/c/|"G7"d>c d e|"C"c/d/e/f/ g2|
c G G e|e c c B/c/|"G7"d>c d e|"C"c4:|
|:"G7"f d c B|"C"c G c e|"G7"d>c d e|"C"c/d/e/f/ g2|
"G7"f d c B|"C"c G c e|"G7"d>c d e|"C"c4:|
|:"C"ec ec|"F"FA FA|"G7"fe/d/ cB|"C"ceG2|
ec ec|"F"FA FA|"G7"fe/d/ cB|"C"c4:|

